Adwaita++-Dark/actions/22/object-columns.svg

<svg height="22" viewBox="0 0 22 22" width="22" xmlns="http://www.w3.org/2000/svg">
  <path d="m3 2v12h2v-12zm4 0v12h2v-12zm4 0v12h2v-12z" fill="#e6ddff" transform="translate(3 3)"/>
</svg>

<svg xmlns="http://www.w3.org/2000/svg" width="22" height="22" viewBox="0 0 22 22">
 <defs>
  <style id="current-color-scheme" type="text/css">
   .ColorScheme-Text { color:#E6DDFF; } .ColorScheme-Highlight { color:#4285f4; }
  </style>
 </defs>
 <path style="fill:currentColor" class="ColorScheme-Text" d="M 3 2 L 3 14 L 5 14 L 5 2 L 3 2 z M 7 2 L 7 14 L 9 14 L 9 2 L 7 2 z M 11 2 L 11 14 L 13 14 L 13 2 L 11 2 z" transform="translate(3 3)"/>
</svg>
